dist/img/svg/yt.svg

<svg width="12" height="12" viewBox="0 0 12 12" fill="none" xmlns="http://www.w3.org/2000/svg">
<path fill-rule="evenodd" clip-rule="evenodd" d="M11.4891 9.33047C11.1633 9.90937 10.8094 10.0148 10.0922 10.057C9.37266 10.1039 7.56562 10.125 6.00234 10.125C4.43438 10.125 2.62734 10.1039 1.90781 10.057C1.19063 10.0148 0.836719 9.90937 0.508594 9.33047C0.173438 8.75156 0 7.75547 0 6.00234V6V5.99766V5.99531C0 4.24922 0.173438 3.24609 0.508594 2.67422C0.836719 2.09531 1.19063 1.98984 1.90781 1.94062C2.62734 1.89844 4.43438 1.875 6.00234 1.875C7.56797 1.875 9.375 1.90078 10.0945 1.94062C10.8141 1.98984 11.168 2.09531 11.4914 2.67422C11.8289 3.24609 12 4.24922 12 5.99531V6V6.00234C12 7.75547 11.8289 8.75156 11.4891 9.33047ZM8.25 6L4.5 8.25V3.75L8.25 6Z" fill="white"/>
</svg>

<svg width="12" height="12" viewBox="0 0 12 12" fill="none" xmlns="http://www.w3.org/2000/svg"><path fill-rule="evenodd" clip-rule="evenodd" d="M11.49 9.33c-.327.58-.68.685-1.398.727-.72.047-2.526.068-4.09.068-1.568 0-3.375-.021-4.094-.068-.717-.042-1.071-.148-1.4-.727C.174 8.752 0 7.755 0 6.002v-.007c0-1.746.173-2.749.509-3.32.328-.58.682-.685 1.399-.734.72-.043 2.526-.066 4.094-.066 1.566 0 3.373.026 4.093.066.72.049 1.073.154 1.396.733.338.572.509 1.575.509 3.321v.007c0 1.753-.171 2.75-.51 3.328zM8.25 6L4.5 8.25v-4.5L8.25 6z" fill="#fff"/></svg>
